src/lib/packages/icons/src/assets/line/thumbtack.svg

<svg width="24" height="24" viewBox="0 0 24 24" fill="none" xmlns="http://www.w3.org/2000/svg">
<path d="M20.971 8.18307L15.817 3.02902C15.098 2.30902 14.424 2.21397 13.984 2.25997C13.353 2.32697 12.768 2.73094 12.337 3.39694L10.131 6.80587C9.84699 7.24487 9.366 7.50705 8.843 7.50705C6.708 7.50705 4.70099 8.33787 3.19099 9.84787C3.04999 9.98887 2.97099 10.1789 2.97099 10.3779C2.97099 10.5769 3.04999 10.7679 3.19099 10.9079L7.61099 15.3269L2.46999 20.469C2.17699 20.762 2.17699 21.237 2.46999 21.53C2.61599 21.676 2.80799 21.75 2.99999 21.75C3.19199 21.75 3.38399 21.677 3.52999 21.53L8.671 16.3879L13.091 20.8069C13.237 20.9529 13.429 21.0271 13.621 21.0271C13.813 21.0271 14.005 20.9538 14.151 20.8069C15.66 19.2978 16.492 17.29 16.492 15.156C16.492 14.634 16.754 14.1519 17.193 13.8679L20.603 11.6609C21.269 11.2299 21.673 10.6439 21.74 10.0139C21.786 9.57588 21.69 8.90207 20.971 8.18307ZM19.788 10.403L16.378 12.6089C15.51 13.1709 14.992 14.123 14.992 15.156C14.992 16.637 14.499 18.044 13.591 19.186L4.813 10.4079C5.956 9.49992 7.362 9.00705 8.843 9.00705C9.876 9.00705 10.828 8.48906 11.39 7.62106L13.596 4.21188C13.771 3.94088 13.976 3.76892 14.143 3.75192C14.361 3.73392 14.621 3.95408 14.757 4.08908L19.911 9.24289C20.047 9.37889 20.271 9.6389 20.248 9.8569C20.23 10.0239 20.059 10.229 19.788 10.403Z" fill="currentColor"/>
</svg>

<svg xmlns="http://www.w3.org/2000/svg" width="24" height="24" fill="none"><path fill="currentColor" d="M20.971 8.183 15.817 3.03c-.719-.72-1.393-.815-1.833-.769-.631.067-1.216.47-1.647 1.137l-2.206 3.409a1.528 1.528 0 0 1-1.288.701 7.94 7.94 0 0 0-5.652 2.34.749.749 0 0 0 0 1.06l4.42 4.42L2.47 20.47a.75.75 0 0 0 1.06 1.061l5.141-5.142 4.42 4.419a.748.748 0 0 0 1.06 0 7.942 7.942 0 0 0 2.341-5.651c0-.522.262-1.004.701-1.288l3.41-2.207c.666-.431 1.07-1.017 1.137-1.647.046-.438-.05-1.112-.769-1.83Zm-1.183 2.22-3.41 2.206a3.023 3.023 0 0 0-1.386 2.547 6.444 6.444 0 0 1-1.401 4.03l-8.778-8.778a6.446 6.446 0 0 1 4.03-1.401 3.023 3.023 0 0 0 2.547-1.386l2.206-3.41c.175-.27.38-.442.547-.46.218-.017.478.203.614.338l5.154 5.154c.136.136.36.396.337.614-.018.167-.189.372-.46.546Z"/></svg>
